assets/images/icons/timer.svg

<svg width="20" height="21" viewBox="0 0 20 21" fill="none" xmlns="http://www.w3.org/2000/svg">
<g clip-path="url(#clip0_326_3138)">
<path d="M13.1506 8.42199C14.4766 7.21305 16.2698 5.57801 16.4332 1.67188H17.6172V0.5H2.38281V1.67188H3.56676C3.7302 5.57801 5.5234 7.21305 6.84941 8.42199C7.73891 9.23297 8.24219 9.72934 8.24219 10.5C8.24219 11.2707 7.73891 11.767 6.84941 12.578C5.5234 13.787 3.7302 15.422 3.56676 19.3281H2.38281V20.5H17.6172V19.3281H16.4332C16.2698 15.422 14.4766 13.787 13.1506 12.578C12.2611 11.767 11.7578 11.2707 11.7578 10.5C11.7578 9.72934 12.2611 9.23297 13.1506 8.42199ZM9.41406 14.8921C9.23309 14.9295 9.0543 14.9838 8.8798 15.056L5.29086 16.5411C5.87695 15.0509 6.82094 14.1898 7.63895 13.444C8.55184 12.6117 9.41406 11.8256 9.41406 10.5V14.8921ZM12.3611 13.444C13.1791 14.1898 14.123 15.0509 14.7091 16.5411L11.1202 15.0559C10.9457 14.9837 10.7669 14.9294 10.5859 14.8921V10.5C10.5859 11.8256 11.4482 12.6117 12.3611 13.444ZM5.27027 4.40625C4.98695 3.66801 4.79129 2.77664 4.74008 1.67188H15.2599C15.2087 2.77664 15.013 3.66801 14.7297 4.40625H5.27027Z" fill="#7FB51F"/>
</g>
<defs>
<clipPath id="clip0_326_3138">
<rect width="20" height="20" fill="white" transform="translate(0 0.5)"/>
</clipPath>
</defs>
</svg>

<svg xmlns="http://www.w3.org/2000/svg" width="20" height="21" fill="none"><g clip-path="url(#a)"><path fill="#7FB51F" d="M13.15 8.422c1.327-1.209 3.12-2.844 3.283-6.75h1.184V.5H2.383v1.172h1.184c.163 3.906 1.956 5.541 3.282 6.75.89.811 1.393 1.307 1.393 2.078s-.503 1.267-1.393 2.078c-1.326 1.209-3.119 2.844-3.282 6.75H2.383V20.5h15.234v-1.172h-1.184c-.163-3.906-1.956-5.541-3.282-6.75-.89-.811-1.393-1.307-1.393-2.078s.503-1.267 1.393-2.078m-3.736 6.47q-.271.057-.534.164l-3.59 1.485c.587-1.49 1.53-2.351 2.349-3.097.913-.832 1.775-1.618 1.775-2.944zm2.947-1.448c.818.746 1.762 1.607 2.348 3.097l-3.589-1.485a3 3 0 0 0-.534-.164V10.5c0 1.326.862 2.112 1.775 2.944m-7.09-9.038c-.284-.738-.48-1.63-.53-2.734H15.26c-.051 1.105-.247 1.996-.53 2.734z"/></g><defs><clipPath id="a"><path fill="#fff" d="M0 .5h20v20H0z"/></clipPath></defs></svg>
